austria/municipalities/10724.svg

﻿<?xml version="1.0" encoding="UTF-8" standalone="no"?>
<!-- Created with Inkscape (http://www.inkscape.org/) -->
<svg
   xmlns:dc="http://purl.org/dc/elements/1.1/"
   xmlns:cc="http://web.resource.org/cc/"
   xmlns:rdf="http://www.w3.org/1999/02/22-rdf-syntax-ns#"
   xmlns:svg="http://www.w3.org/2000/svg"
   xmlns="http://www.w3.org/2000/svg"
   xmlns:sodipodi="http://sodipodi.sourceforge.net/DTD/sodipodi-0.dtd"
   xmlns:inkscape="http://www.inkscape.org/namespaces/inkscape"
   width="200"
   height="230"
   id="svg2"
   sodipodi:version="0.32"
   inkscape:version="0.45.1"
   version="1.0"
   sodipodi:docname="Coat of arms of Zurndorf.svg"
   inkscape:output_extension="org.inkscape.output.svg.inkscape">
  <defs id="defs4" />
  <sodipodi:namedview
     id="base"
     pagecolor="#ffffff"
     bordercolor="#666666"
     borderopacity="1.0"
     inkscape:pageopacity="0.0"
     inkscape:pageshadow="2"
     inkscape:zoom="1.979899"
     inkscape:cx="97.150794"
     inkscape:cy="164.70177"
     inkscape:document-units="px"
     inkscape:current-layer="layer1"
     width="200px"
     height="230px"
     showgrid="true"
     inkscape:grid-points="true"
     gridtolerance="10000"
     showguides="true"
     inkscape:guide-bbox="true"
     inkscape:window-width="1152"
     inkscape:window-height="792"
     inkscape:window-x="0"
     inkscape:window-y="44">
    <sodipodi:guide
       orientation="vertical"
       position="-313.14729"
       id="guide2253" />
  </sodipodi:namedview>
  <metadata
     id="metadata7">
    <rdf:RDF>
      <cc:Work
         rdf:about="">
        <dc:format>image/svg+xml</dc:format>
        <dc:type
           rdf:resource="http://purl.org/dc/dcmitype/StillImage" />
      </cc:Work>
    </rdf:RDF>
  </metadata>
  <g
     inkscape:label="1. réteg"
     inkscape:groupmode="layer"
     id="layer1">
    <path
       style="fill:#0171c7;fill-opacity:1;fill-rule:evenodd;stroke:#000000;stroke-width:4;stroke-linecap:butt;stroke-linejoin:miter;stroke-miterlimit:4;stroke-dasharray:none;stroke-opacity:1"
       d="M 2,2 C 10,2 189,2 198,2 C 198,10 198,120 198,125 C 198,190 150,228 100,228 C 50,228 2,190 2,125 C 2,120 2,10 2,2 z "
       id="path2251"
       sodipodi:nodetypes="ccszsc" />
    <path
       style="fill:#ffffff;fill-rule:evenodd;stroke:#000000;stroke-width:1px;stroke-linecap:butt;stroke-linejoin:miter;stroke-opacity:1;fill-opacity:1"
       d="M 146,120 C 145,123 143,127 142,130 C 147,128 150.41756,126.38344 152.70542,125.25527 C 150,123 148,122 146,120 z "
       id="path4176"
       sodipodi:nodetypes="cccc" />
    <path
       style="fill:#ffffff;fill-rule:evenodd;stroke:#000000;stroke-width:1px;stroke-linecap:butt;stroke-linejoin:miter;stroke-opacity:1;fill-opacity:1"
       d="M 51,69 C 51,73 51,76 52,83 C 58,80 60.602144,78.456195 65.064374,75.561946 C 58,72 54.627438,70.414843 51,69 z "
       id="path4166"
       sodipodi:nodetypes="cccc" />
    <g
       id="g4198"
       style="fill:#ffffff;fill-opacity:1"
       transform="translate(1.7085267e-6,-13)">
      <g
         id="g4202"
         transform="translate(209.45667,10.5)"
         style="fill:#ffffff;fill-opacity:1">
        <path
           style="fill:#ffffff;fill-opacity:1;fill-rule:evenodd;stroke:#000000;stroke-width:1px;stroke-linecap:butt;stroke-linejoin:miter;stroke-opacity:1"
           d="M -187.45667,22.5 C -185.45667,28.5 -185.45667,29.5 -185.45667,34.5 C -188.45667,35.5 -189.45667,34.5 -192.45667,35.5 C -163.04462,81.675899 -116.36391,102.72782 -55,130 C -40,140 -40.456672,147.5 -35.456672,157.5 C -32.943015,152.69489 -30.456672,146.5 -29.456672,141.5 C -26.456672,139.5 -20.950976,137.09692 -17.456672,135.5 C -20.993845,134.98092 -37.781506,123.18696 -42.061953,118.19966 C -77.739716,62.841637 -126.23635,17.495437 -187.45667,22.5 z "
           id="path2255"
           sodipodi:nodetypes="ccccccccc" />
        <path
           sodipodi:type="arc"
           style="fill:#ffffff;fill-opacity:1;fill-rule:evenodd;stroke:#000000;stroke-width:1;stroke-miterlimit:1;stroke-dasharray:none;stroke-dashoffset:27.6;stroke-opacity:1"
           id="path2257"
           sodipodi:cx="-155"
           sodipodi:cy="45"
           sodipodi:rx="4.6091394"
           sodipodi:ry="4.5542097"
           d="M -150.39402,45.168537 A 4.6091394,4.5542097 0 1 1 -150.39256,45.123773"
           sodipodi:start="0.037015416"
           sodipodi:end="6.3103663"
           sodipodi:open="true"
           transform="translate(-14.565845,-8.4457356)" />
      </g>
    </g>
    <path
       style="fill:none;fill-rule:evenodd;stroke:#000000;stroke-width:1px;stroke-linecap:butt;stroke-linejoin:miter;stroke-opacity:1"
       d="M 65,25 C 65.231568,29.83159 73.794808,50.542003 48,69"
       id="path4164"
       sodipodi:nodetypes="cs" />
    <path
       style="fill:#ffffff;fill-rule:evenodd;stroke:#000000;stroke-width:1px;stroke-linecap:butt;stroke-linejoin:miter;stroke-opacity:1;fill-opacity:1"
       d="M 54,120 C 55,123 56,125 56.439538,129.97968 C 52,129 48,127 44,125 C 46,123 50,121 54,120 z "
       id="path4210"
       sodipodi:nodetypes="cccc" />
    <path
       style="fill:#ffffff;fill-rule:evenodd;stroke:#000000;stroke-width:1px;stroke-linecap:butt;stroke-linejoin:miter;stroke-opacity:1;fill-opacity:1"
       d="M 148,70 C 148,73 148,75 146.71538,79.9606 C 144,80 139,80 135,80 C 140,76 144,73 148,70 z "
       id="path4198"
       sodipodi:nodetypes="cccc" />
    <g
       transform="matrix(-1,0,0,1,199.5,-13.5)"
       style="fill:#ffffff;fill-opacity:1"
       id="g4186">
      <g
         style="fill:#ffffff;fill-opacity:1"
         transform="translate(209.45667,10.5)"
         id="g4188">
        <path
           sodipodi:nodetypes="ccccccccc"
           id="path4190"
           d="M -186.95667,24 C -184.95667,30 -184.45667,32.5 -184.95667,36 C -188.95667,36 -189.95667,36 -193.95667,35 C -169.72769,78.214145 -117.2079,102.24554 -55,130 C -41.154779,141.15478 -40.072606,148.11594 -34.95667,158 C -31.766815,155.86647 -30.182527,148.51555 -29.456668,140.5 C -26.456668,138.5 -20.950976,137.09692 -17.456672,135.5 C -29.236445,128.50252 -40.956931,119.45229 -49.95667,109 C -87.099673,61.431459 -117.48424,21.943543 -186.95667,24 z "
           style="fill:#ffffff;fill-opacity:1;fill-rule:evenodd;stroke:#000000;stroke-width:1px;stroke-linecap:butt;stroke-linejoin:miter;stroke-opacity:1" />
        <path
           transform="translate(-14.065843,-6.0542644)"
           sodipodi:open="true"
           sodipodi:end="6.3103663"
           sodipodi:start="0.037015416"
           d="M -150.39402,45.168537 A 4.6091394,4.5542097 0 1 1 -150.39256,45.123773"
           sodipodi:ry="4.5542097"
           sodipodi:rx="4.6091394"
           sodipodi:cy="45"
           sodipodi:cx="-155"
           id="path4192"
           style="fill:#ffffff;fill-opacity:1;fill-rule:evenodd;stroke:#000000;stroke-width:1;stroke-miterlimit:1;stroke-dasharray:none;stroke-dashoffset:27.6;stroke-opacity:1"
           sodipodi:type="arc" />
      </g>
    </g>
    <path
       style="fill:none;fill-rule:evenodd;stroke:#000000;stroke-width:1px;stroke-linecap:butt;stroke-linejoin:miter;stroke-opacity:1"
       d="M 135,26 C 134.76852,30.832551 128.69517,53.68679 154,67"
       id="path4194"
       sodipodi:nodetypes="cs" />
  </g>
</svg>

<svg xmlns="http://www.w3.org/2000/svg" width="200" height="230" version="1.0"><path style="fill:#0171c7;fill-opacity:1;fill-rule:evenodd;stroke:#000;stroke-width:4;stroke-linecap:butt;stroke-linejoin:miter;stroke-miterlimit:4;stroke-dasharray:none;stroke-opacity:1" d="M2 2h196v123c0 65-48 103-98 103S2 190 2 125V2z"/><path style="fill:#fff;fill-rule:evenodd;stroke:#000;stroke-width:1px;stroke-linecap:butt;stroke-linejoin:miter;stroke-opacity:1;fill-opacity:1" d="M146 120c-1 3-3 7-4 10 5-2 8.418-3.617 10.705-4.745C150 123 148 122 146 120zM51 69c0 4 0 7 1 14 6-3 8.602-4.544 13.064-7.438C58 72 54.627 70.415 51 69z"/><g style="fill:#fff;fill-opacity:1"><path style="fill:#fff;fill-opacity:1;fill-rule:evenodd;stroke:#000;stroke-width:1px;stroke-linecap:butt;stroke-linejoin:miter;stroke-opacity:1" d="M-187.457 22.5c2 6 2 7 2 12-3 1-4 0-7 1C-163.045 81.676-116.364 102.728-55 130c15 10 14.543 17.5 19.543 27.5 2.514-4.805 5-11 6-16 3-2 8.506-4.403 12-6-3.537-.52-20.325-12.313-24.605-17.3-35.678-55.358-84.174-100.705-145.395-95.7z" transform="translate(209.457 -2.5)"/><path style="fill:#fff;fill-opacity:1;fill-rule:evenodd;stroke:#000;stroke-width:1;stroke-miterlimit:1;stroke-dasharray:none;stroke-dashoffset:27.6;stroke-opacity:1" d="M-150.394 45.169a4.61 4.554 0 1 1 .001-.045" transform="translate(194.89 -10.946)"/></g><path style="fill:none;fill-rule:evenodd;stroke:#000;stroke-width:1px;stroke-linecap:butt;stroke-linejoin:miter;stroke-opacity:1" d="M65 25c.232 4.832 8.795 25.542-17 44"/><path style="fill:#fff;fill-rule:evenodd;stroke:#000;stroke-width:1px;stroke-linecap:butt;stroke-linejoin:miter;stroke-opacity:1;fill-opacity:1" d="M54 120c1 3 2 5 2.44 9.98C52 129 48 127 44 125c2-2 6-4 10-5zM148 70c0 3 0 5-1.285 9.96C144 80 139 80 135 80c5-4 9-7 13-10z"/><g style="fill:#fff;fill-opacity:1"><path d="M-186.957 24c2 6 2.5 8.5 2 12-4 0-5 0-9-1 24.23 43.214 76.75 67.246 138.957 95 13.845 11.155 14.927 18.116 20.043 28 3.19-2.134 4.774-9.484 5.5-17.5 3-2 8.506-3.403 12-5-11.78-6.997-23.5-16.048-32.5-26.5-37.143-47.569-67.527-87.056-137-85z" style="fill:#fff;fill-opacity:1;fill-rule:evenodd;stroke:#000;stroke-width:1px;stroke-linecap:butt;stroke-linejoin:miter;stroke-opacity:1" transform="matrix(-1 0 0 1 -9.957 -3)"/><path transform="matrix(-1 0 0 1 4.11 -9.054)" d="M-150.394 45.169a4.61 4.554 0 1 1 .001-.045" style="fill:#fff;fill-opacity:1;fill-rule:evenodd;stroke:#000;stroke-width:1;stroke-miterlimit:1;stroke-dasharray:none;stroke-dashoffset:27.6;stroke-opacity:1"/></g><path style="fill:none;fill-rule:evenodd;stroke:#000;stroke-width:1px;stroke-linecap:butt;stroke-linejoin:miter;stroke-opacity:1" d="M135 26c-.231 4.833-6.305 27.687 19 41"/></svg>
